!!!!SEGMENT: pl-kk--kk-i-102--001-003_anonim--missa-de-ascensione-dni-sanctus.krn
!!!cenid: 17xx:2642
!!!COM: Anonim
!!!COM-rismID: pe30004985
!!!CDT:
!!!CNT:
!!!OPR: [Missa] De ascensione Dni
!!!OTL: Sanctus
!!!OMV: 003
!!!PDT:
!!!AGN: Sacred; Mass
!!!YEC: Copyright 2022 Narodowy Instytut Fryderyka Chopina (https://polishscores.org)
!!!YEM: License CC-BY-4.0 (https://creativecommons.org/licenses/by/4.0)
!!!SMS-siglum: PL-Kk
!!!SMS-shelfmark: Kk.I.102
!!!SMS-variant:
!!!SMS-altvar:
!!!SMS-shelfwork: 001-003 M
!!!NIFC-rismSourceID: 1001156391
!!!NIFC-rismChildID: 1001156391
!!!NIFC-islandoraID: pl-kk:3251
!!!URL-pdf-islandora: https://repozytorium.nifc.pl/islandora/object/pl-kk:3251/datastream/PDF/view
!!!URL-scan: https://polish.musicsources.pl/pl/lokalizacje/galeria/rekopisy/5739/1 @EN{Scan on Polish Music Sources Website} @PL{Skany w portalu Dziedzictwo Muzyki Polskiej w otwartym dostępie}
!!!IIIF:
!!!ONB-nifc: UWAGA: części Mszy: 1. Kyrie, 2. Et in terra, 3. Sanctus, 4. Agnus Dei. Obsada: SAA2TBBrip. Uwaga: Alto 2do dodać tylko w cz. Agnus. Na dole s. 14 fragment innej Mszy.
!!!AIN: 1 alto 2 bass rip 1 canto 1 tenor
!!!key:
**kern	**text	**kern	**text	**kern	**text	**kern	**text	**kern	**text
*part5	*part5	*part4	*part4	*part3	*part3	*part2	*part2	*part1	*part1
*staff5	*staff5	*staff4	*staff4	*staff3	*staff3	*staff2	*staff2	*staff1	*staff1
*I"Baſso Ripieno.	*	*I"Baſso.	*	*I"Tenore.	*	*I"Alto.	*	*I"Canto.	*
*I'B rip	*	*I'B	*	*I'T	*	*I'A	*	*I'S	*
*Ibass	*	*Ibass	*	*Itenor	*	*Ialto	*	*Icanto	*
*IGripn	*	*	*	*	*	*	*	*	*
*ICvox	*	*ICvox	*	*ICvox	*	*ICvox	*	*ICvox	*
*clefC4	*	*clefC4	*	*clefC3	*	*clefC2	*	*clefG2	*
*k[b-]	*	*k[b-]	*	*k[b-]	*	*k[b-]	*	*k[b-]	*
*g:	*	*g:	*	*g:	*	*g:	*	*g:	*
*M2/1	*	*M2/1	*	*M2/1	*	*M2/1	*	*M2/1	*
*met(C|)	*	*met(C|)	*	*met(C|)	*	*met(C|)	*	*	*
=1	=1	=1	=1	=1	=1	=1	=1	=1	=1
!	!	!	!	!	!	!LO:TX:t=P:problem:zdwojony znak przykluczowy	!	!LO:TX:t=P:problem:kreska pseudotaktowa	!
*	*	*	*	*	*	*	*	*met(C|)	*
00r	.	00r	.	1G	San-	00r	.	1r	.
*	*	*	*	*2\right	*	*	*	*lig	*
.	.	.	.	2B-/	.	.	.	1g	San-
!	!	!	!	!LO:TX:t=P:problem:kreska pseudotaktowa	!	!	!	!	!
.	.	.	.	2c/	.	.	.	.	.
=2	=2	=2	=2	=2	=2	=2	=2	=2	=2
!	!	!	!	!LO:TX:t=P:problem:2\right:global	!	!LO:TX:t=P:problem:kreska pseudotaktowa	!	!	!
.	.	.	.	2d\	.	.	.	1b-	.
.	.	.	.	2B-/	.	.	.	.	.
*	*	*	*	*	*	*	*	*Xlig	*
*	*	*	*	*	*	*	*	*lig	*
.	.	.	.	1e	.	.	.	1g	-ctus
=3	=3	=3	=3	=3	=3	=3	=3	=3	=3
!	!	!	!	!	!	!	!	!LO:TX:t=P:problem:kreska pseudotaktowa	!
0r	.	0r	.	2.d\	.	2r	.	1f	.
.	.	.	.	.	.	2d/	San-	.	.
.	.	.	.	4c/	.	.	.	.	.
!	!	!	!	!LO:TX:t=P:problem:kreska pseudotaktowa	!	!LO:TX:t=P:problem:kreska pseudotaktowa	!	!	!
*	*	*	*	*	*	*	*	*Xlig	*
!	!	!	!	!	!	!LO:TX:t=P:problem:2\right:global	!	!	!
*	*	*	*	*	*	*	*	*lig	*
.	.	.	.	4B-/	.	2f\	.	1b-	/San-
.	.	.	.	4A/	.	.	.	.	.
!	!	!	!	!LO:TX:t=P:problem:kreska pseudotaktowa	!	!	!	!	!
.	.	.	.	2G/	.	2g\	.	.	.
=4	=4	=4	=4	=4	=4	=4	=4	=4	=4
!LO:TX:t=P:problem:kreska pseudotaktowa	!	!LO:TX:t=P:problem:kreska pseudotaktowa	!	!	!	!	!	!	!
1r	.	1r	.	2F,/	-ctus	2a\	.	1cc	.
.	.	.	.	2A/	San-	2f\	.	.	.
!	!	!	!	!	!	!LO:TX:t=P:problem:kreska pseudotaktowa	!	!	!
*	*	*	*	*	*	*	*	*Xlig	*
!	!	!	!	!	!	!	!	!LO:TX:t=P:problem:kreska pseudotaktowa	!
1G	San-	1G	San-	4G/	.	2.b-\	.	1dd	-ctus/
.	.	.	.	4A/	.	.	.	.	.
.	.	.	.	4B-/	.	.	.	.	.
!	!	!	!	!LO:TX:t=P:problem:kreska pseudotaktowa	!	!	!	!	!
.	.	.	.	4c/	.	8a\L	.	.	.
.	.	.	.	.	.	8g\J	.	.	.
=5	=5	=5	=5	=5	=5	=5	=5	=5	=5
!	!	!LO:TX:t=P:problem:kreska pseudotaktowa	!	!	!	!	!	!	!
*	*	*	*	*	*	*lig	*	*2\right	*
!	!	!	!	!	!	!	!	!LO:TX:t=P:problem:2\right:global	!
1B-	.	1B-	.	4d\	.	1f	.	2b-\	San-
.	.	.	.	4e\	.	.	.	.	.
.	.	.	.	1f	.	.	.	1dd	.
*lig	*	*lig	*	*	*	*	*	*	*
1G	-ctus	1G	-ctus	.	.	1g	.	.	.
.	.	.	.	2e\	.	.	.	4cc\	.
.	.	.	.	.	.	.	.	4b-\	.
!	!	!	!	!LO:TX:t=P:problem:kreska pseudotaktowa	!	!	!	!LO:TX:t=P:problem:kreska pseudotaktowa	!
*	*	*	*	*	*	*Xlig	*	*	*
=6	=6	=6	=6	=6	=6	=6	=6	=6	=6
!	!	!LO:TX:t=P:problem:kreska pseudotaktowa	!	!	!	!LO:TX:t=P:problem:kreska pseudotaktowa	!	!	!
1F	.	1F	.	2f,\	-ct(us)	1c	-ctus	4a/	.
.	.	.	.	.	.	.	.	4g/	.
*	*	*	*	*	*ij	*	*	*	*
.	.	.	.	1f	San-	.	.	2a/	-ct(us)
*Xlig	*	*Xlig	*	*	*	*	*	*	*
*lig	*	*lig	*	*	*	*	*	*	*
1B-	/San-	1B-	/San-	.	.	0r	.	2d,/	.
!	!	!	!	!LO:TX:t=P:problem:kreska pseudotaktowa	!	!	!	!LO:TX:t=P:problem:kreska pseudotaktowa	!
*	*	*	*	*	*	*	*	*	*ij
.	.	.	.	2g\	.	.	.	2dd\	San-
=7	=7	=7	=7	=7	=7	=7	=7	=7	=7
!	!	!	!	!	!	!LO:TX:t=P:problem:kreska pseudotaktowa	!	!	!
1c	.	1c	.	2a\	.	.	.	2.cc\	.
.	.	.	.	1g	.	.	.	.	.
.	.	.	.	.	.	.	.	4b-/	.
*Xlig	*	*Xlig	*	*	*	*	*	*	*
0,d	-ctus/	0,d	-ctus/	.	.	1r	.	0a	.
.	.	.	.	4f\	.	.	.	.	.
!	!	!	!	!LO:TX:t=P:problem:kreska pseudotaktowa	!	!	!	!	!
.	.	.	.	4e\	.	.	.	.	.
=8	=8	=8	=8	=8	=8	=8	=8	=8	=8
!LO:TX:t=P:problem:kreska pseudotaktowa	!	!LO:TX:t=P:problem:kreska pseudotaktowa	!	!	!	!	!	!LO:TX:t=P:problem:kreska pseudotaktowa	!
.	.	.	.	2.f\	.	1d	San-	.	.
.	.	.	.	4e\	.	.	.	.	.
!LO:TX:t=P:problem:kreska pseudotaktowa	!	!LO:TX:t=P:problem:kreska pseudotaktowa	!	!	!	!	!	!	!
*	*	*	*	*	*	*2\right	*	*lig	*
1r	.	1r	.	2d\	.	2f\	.	1dd	.
!	!	!	!	!LO:TX:t=P:problem:kreska pseudotaktowa	!	!	!	!	!
.	.	.	.	2G/	-ct(us)	2g\	.	.	.
*	*	*	*	*	*Xij	*	*	*	*
=9	=9	=9	=9	=9	=9	=9	=9	=9	=9
!	!	!	!	!	!	!LO:TX:t=P:problem:kreska pseudotaktowa	!	!	!
1D	San-	1D	San-	1r	.	1a	.	1ff	.
*	*	*	*	*lig	*	*	*	*Xlig	*
!	!	!	!	!	!	!	!	!LO:TX:t=P:problem:kreska pseudotaktowa	!
2F/	.	2F/	.	1d	San-	2f\	.	1dd	-ct(us)
*	*	*	*	*	*	*	*	*	*Xij
!	!	!LO:TX:t=P:problem:kreska pseudotaktowa	!	!	!	!	!	!	!
2G/	.	2G/	.	.	.	[2b-\	.	.	.
=10	=10	=10	=10	=10	=10	=10	=10	=10	=10
2A/	.	2A/	.	1f	.	4b-\]	.	2cc,\	.
.	.	.	.	.	.	4a\	.	.	.
2F/	.	2F/	.	.	.	1a	.	1ff	San-
!LO:TX:t=P:problem:kreska pseudotaktowa	!	!	!	!	!	!	!	!	!
*	*	*	*	*Xlig	*	*	*	*	*
*	*	*	*	*lig	*	*	*	*	*
1B-	.	1B-	.	1d	.	.	.	.	.
.	.	.	.	.	.	2g\	.	4ee\	.
!	!	!	!	!	!	!	!	!LO:TX:t=P:problem:kreska pseudotaktowa	!
.	.	.	.	.	.	.	.	4dd\	.
=11	=11	=11	=11	=11	=11	=11	=11	=11	=11
!	!	!LO:TX:t=P:problem:kreska pseudotaktowa	!	!	!	!LO:TX:t=P:problem:kreska pseudotaktowa	!	!	!
1A	.	1A	.	1c	.	0a	-ctus	2ff\	.
.	.	.	.	.	.	.	.	2.ee\	.
*	*	*	*	*Xlig	*	*	*	*	*
*	*	*	*	*lig	*	*	*	*	*
2.D/	.	2.D/	.	1f	.	.	.	.	.
.	.	.	.	.	.	.	.	4dd\	.
.	.	.	.	.	.	.	.	[2dd\	.
4F/	.	4F/	.	.	.	.	.	.	.
!	!	!	!	!	!	!LO:LB:g=original	!	!	!
=12	=12	=12	=12	=12	=12	=12	=12	=12	=12
!	!	!	!	!LO:TX:t=P:problem:kreska pseudotaktowa	!	!	!	!	!
1E	.	1E	.	1g	.	2r	.	2dd\]	.
.	.	.	.	.	.	1g	Do-	2cc\	.
!	!	!	!	!LO:LB:g=original	!	!	!	!LO:TX:t=P:problem:kreska pseudotaktowa	!
*	*	*	*	*Xlig	*	*	*	*	*
!LO:TX:t=P:problem:kreska pseudotaktowa	!	!LO:TX:t=P:problem:kreska pseudotaktowa	!	!	!	!	!	!	!
1D	-ctus	1D	-ctus	1a	.	.	.	2dd,\	-ct(us)
!	!	!	!	!	!	!LO:TX:t=P:problem:kreska pseudotaktowa	!	!	!
.	.	.	.	.	.	2f\	-mi-	[2dd\	Do-
=13	=13	=13	=13	=13	=13	=13	=13	=13	=13
00r	.	00r	.	2g\	.	2b-\	-n(us)	2dd\]	.
!	!	!	!	!	!	!	!	!LO:TX:t=P:problem:kreska pseudotaktowa	!
.	.	.	.	2e\	.	1cc	De-	2cc\	-mi-
*	*	*	*	*	*	*	*	*custos:ff	*
!	!	!	!	!	!	!	!	!LO:LB:g=original	!
.	.	.	.	0d	-ctus	.	.	2ff\	-n(us)
!	!	!	!	!	!	!LO:TX:t=P:problem:kreska pseudotaktowa	!	!	!
.	.	.	.	.	.	2b-\	-us	[2gg\	De-
=14	=14	=14	=14	=14	=14	=14	=14	=14	=14
!	!	!	!	!LO:TX:t=P:problem:kreska pseudotaktowa	!	!	!	!	!
.	.	.	.	.	.	2a\	Sab-	2gg\]	.
!	!	!	!	!	!	!LO:TX:t=P:problem:kreska pseudotaktowa	!	!LO:TX:t=P:problem:kreska pseudotaktowa	!
.	.	.	.	.	.	2a\	-ba-	2ff\	-(us)
.	.	.	.	0r	.	4g\	-oth	2ee\	Sab-
.	.	.	.	.	.	4a\	.	.	.
.	.	.	.	.	.	4b-\	.	2dd\	.
.	.	.	.	.	.	4g\	.	.	.
=15	=15	=15	=15	=15	=15	=15	=15	=15	=15
!LO:TX:t=P:problem:kreska pseudotaktowa	!	!LO:TX:t=P:problem:kreska pseudotaktowa	!	!LO:TX:t=P:problem:kreska pseudotaktowa	!	!	!	!	!
0r	.	0r	.	.	.	2a\	.	2cc\	.
!	!	!	!	!	!	!	!	!LO:TX:t=P:problem:kreska pseudotaktowa	!
.	.	.	.	.	.	1g	Do-	2b-\	-ba-
.	.	.	.	2r	.	.	.	0a	-oth.
!	!	!	!	!	!	!LO:TX:t=P:problem:kreska pseudotaktowa	!	!	!
.	.	.	.	[2d\	Do-	2f\	-mi-	.	.
=16	=16	=16	=16	=16	=16	=16	=16	=16	=16
!	!	!	!	!	!	!	!	!LO:TX:t=P:problem:kreska pseudotaktowa	!
1.A	Do-	1.A	Do-	2d\]	.	1e,	-n(us)	.	.
!	!	!	!	!LO:TX:t=P:problem:kreska pseudotaktowa	!	!	!	!	!
.	.	.	.	2c\	-mi-	.	.	.	.
.	.	.	.	2f\	-n(us)	2c/	De-	1r	.
!LO:TX:t=P:problem:kreska pseudotaktowa	!	!LO:TX:t=P:problem:kreska pseudotaktowa	!	!	!	!LO:TX:t=P:problem:kreska pseudotaktowa	!	!	!
2G/	-mi-	2G/	-mi-	[2g\	De-	2d/	-us	.	.
=17	=17	=17	=17	=17	=17	=17	=17	=17	=17
!LO:TX:t=P:problem:2\right:global	!	!	!	!	!	!	!	!LO:TX:t=P:problem:kreska pseudotaktowa	!
*2\right	*	*2\right	*	*	*	*	*	*	*
2c,\	-n(us)	2c,\	-n(us)	2g\]	.	2e\	Sab-	0r	.
!	!	!	!	!LO:TX:t=P:problem:kreska pseudotaktowa	!	!	!	!	!
1d	DE-	1d	De-	2f\	.	2f\	.	.	.
.	.	.	.	2e\	.	2g\	.	.	.
!LO:TX:t=P:problem:kreska pseudotaktowa	!	!LO:TX:t=P:problem:kreska pseudotaktowa	!	!	!	!	!	!	!
2c\	-(us)	2c\	-us	2e,\	-us	[2a\	.	.	.
=18	=18	=18	=18	=18	=18	=18	=18	=18	=18
2B-\	Sab-	2B-\	Sab-	2.d\	Sab-	2a\]	.	2r	.
!	!	!LO:TX:t=P:problem:kreska pseudotaktowa	!	!	!	!LO:TX:t=P:problem:kreska pseudotaktowa	!	!	!
2B-\	-ba-	2B-\	-ba-	.	.	2g\	-ba-	1dd	Do-
!	!	!	!	!LO:TX:t=P:problem:kreska pseudotaktowa	!	!	!	!	!
.	.	.	.	4e\	.	.	.	.	.
!	!	!LO:LB:g=original	!	!	!	!LO:TX:t=P:problem:kreska pseudotaktowa	!	!	!
2.A/	-oth	2.A/	-oth	2f\	.	1a	-oth.	.	.
!	!	!	!	!	!	!	!	!LO:TX:t=P:problem:kreska pseudotaktowa	!
.	.	.	.	2e\	.	.	.	2cc\	-mi-
!LO:TX:t=P:problem:kreska pseudotaktowa	!	!LO:TX:t=P:problem:kreska pseudotaktowa	!	!	!	!	!	!	!
4G/	.	4G/	.	.	.	.	.	.	.
*custos:B	*	*	*	*	*	*	*	*	*
!LO:LB:g=original	!	!	!	!	!	!	!	!	!
=19	=19	=19	=19	=19	=19	=19	=19	=19	=19
!	!	!	!	!	!	!LO:TX:t=P:problem:kreska pseudotaktowa	!	!	!
2F/	.	2F/	.	2d\	.	1r	.	2ff\	-n(us)
!	!	!LO:TX:t=P:problem:kreska pseudotaktowa	!	!	!	!	!	!	!
2E/	Sab-	2E/	Sab-	2c\	-ba-	.	.	1gg	De-
!	!	!	!	!LO:TX:t=P:problem:kreska pseudotaktowa	!	!	!	!	!
4D/	.	(4D/	.	1d	-oth	2r	.	.	.
4E/	.	4E/	.	.	.	.	.	.	.
4F/	.	4F/	.	.	.	[2a\	Do-	2ff\	-us
!	!	!LO:TX:t=P:problem:kreska pseudotaktowa	!	!	!	!	!	!	!
4G/	.	4G/)	.	.	.	.	.	.	.
=20	=20	=20	=20	=20	=20	=20	=20	=20	=20
!	!	!	!	!	!	!	!	!LO:TX:t=P:problem:kreska pseudotaktowa	!
4A\	.	4A\	.	0r	.	2a\]	.	1ee	Sab-
4B-\	.	4B-\	.	.	.	.	.	.	.
!	!	!LO:TX:t=P:problem:kreska pseudotaktowa	!	!	!	!LO:TX:t=P:problem:kreska pseudotaktowa	!	!	!
2c\	.	2c\	.	.	.	2g\	-mi-	.	.
2G/	.	2G/	.	.	.	2b-\	-n(us)	2dd\	.
2A\	-ba-	2A\	-ba-	.	.	[2cc\	De-	2cc\	.
=21	=21	=21	=21	=21	=21	=21	=21	=21	=21
!LO:TX:t=P:problem:kreska pseudotaktowa	!	!LO:TX:t=P:problem:kreska pseudotaktowa	!	!	!	!	!	!	!
1G,	-oth	1G,	-oth	2r	.	2cc\]	.	2dd\	.
!	!	!	!	!	!	!LO:TX:t=P:problem:kreska pseudotaktowa	!	!LO:TX:t=P:problem:kreska pseudotaktowa	!
.	.	.	.	1d	Do-	2b-\	.	2dd\	-ba-
00r	.	00r	.	.	.	2.a\	-us	2ff\	-oth
!	!	!	!	!LO:TX:t=P:problem:kreska pseudotaktowa	!	!	!	!	!
.	.	.	.	2c\	-mi-	.	.	2ee\	.
!	!	!	!	!	!	!LO:TX:t=P:problem:kreska pseudotaktowa	!	!	!
.	.	.	.	.	.	4g\	Sab-	.	.
=22	=22	=22	=22	=22	=22	=22	=22	=22	=22
!	!	!	!	!	!	!	!	!LO:TX:t=P:problem:kreska pseudotaktowa	!
.	.	.	.	2f\	-n(us)	2a\	.	1dd	.
.	.	.	.	1g	De-	2b-\	.	.	.
.	.	.	.	.	.	2g\	.	2b-\	Sab-
!	!	!	!	!LO:TX:t=P:problem:kreska pseudotaktowa	!	!	!	!	!
.	.	.	.	2f\	-(us)	[2a\	.	[2cc\	.
=23	=23	=23	=23	=23	=23	=23	=23	=23	=23
!LO:TX:t=P:problem:kreska pseudotaktowa	!	!LO:TX:t=P:problem:kreska pseudotaktowa	!	!	!	!	!	!	!
.	.	.	.	2e\	Sab-	4a\]	.	4cc\]	.
.	.	.	.	.	.	4g\	.	4b-/	.
.	.	.	.	2e\	-ba-	1g	.	2g/	.
!	!	!	!	!LO:TX:t=P:problem:kreska pseudotaktowa	!	!	!	!LO:TX:t=P:problem:kreska pseudotaktowa	!
1r	.	1r	.	1d	-oth	.	.	1a	.
.	.	.	.	.	.	2f\	-ba-	.	.
=24	=24	=24	=24	=24	=24	=24	=24	=24	=24
!	!	!	!	!	!	!LO:TX:t=P:problem:kreska pseudotaktowa	!	!	!
2r	.	2r	.	4G/	Sab-	1g	-oth	1.b-	.
.	.	.	.	4A/	.	.	.	.	.
1G	Do-	1G	Do-	4B-/	.	.	.	.	.
!	!	!	!	!LO:TX:t=P:problem:kreska pseudotaktowa	!	!	!	!	!
.	.	.	.	4c/	.	.	.	.	.
.	.	.	.	4d\	.	00r	.	.	.
.	.	.	.	4e\	.	.	.	.	.
!LO:TX:t=P:problem:kreska pseudotaktowa	!	!LO:TX:t=P:problem:kreska pseudotaktowa	!	!	!	!	!	!LO:TX:t=P:problem:kreska pseudotaktowa	!
2F/	-mi-	2F/	-mi-	2f\	.	.	.	2a/	.
=25	=25	=25	=25	=25	=25	=25	=25	=25	=25
2B-,\	-n(us)	2B-,\	-n(us)	2d\	.	.	.	2g/	.
1c	DE-	1c	De-	1e	.	.	.	2.a/	.
.	.	.	.	.	.	.	.	4g/	.
!LO:TX:t=P:problem:kreska pseudotaktowa	!	!LO:TX:t=P:problem:kreska pseudotaktowa	!	!LO:TX:t=P:problem:kreska pseudotaktowa	!	!	!	!	!
2B-\	-(us)	2B-\	-(us)	2d\	-ba-	.	.	[2g/	.
!	!	!	!	!LO:LB:g=original	!	!	!	!	!
=26	=26	=26	=26	=26	=26	=26	=26	=26	=26
*	*	*	*	*lig	*	*	*	*	*
!	!	!	!	!	!	!LO:TX:t=P:problem:kreska pseudotaktowa	!	!	!
2A\	Sab-	2A\	Sab-	1c	-oth.	.	.	2g/]	.
!	!	!	!	!	!	!	!	!LO:TX:t=P:problem:kreska pseudotaktowa	!
2A\	.	2A\	.	.	.	.	.	2f/	.
!	!	!	!	!LO:TX:t=P:problem:kreska pseudotaktowa	!	!LO:N:vis=0r	!	!	!
(4G/	-ba-	4G/	-ba-	1d	.	2r	.	2b-\	.
4A/	.	4A/	.	.	.	.	.	.	.
4B-/	.	4B-/	.	.	.	[2g\	Do-	2b-\	-ba-
4c/)	.	4c\	.	.	.	.	.	.	.
*	*	*	*	*Xlig	*	*	*	*	*
=27	=27	=27	=27	=27	=27	=27	=27	=27	=27
!LO:TX:t=P:problem:kreska pseudotaktowa	!	!LO:TX:t=P:problem:kreska pseudotaktowa	!	!	!	!	!	!LO:TX:t=P:problem:kreska pseudotaktowa	!
1d,	-oth	1d	-oth	2r	.	2g\]	.	1a	-oth
!	!	!	!	!	!	!LO:TX:t=P:problem:kreska pseudotaktowa	!	!	!
.	.	.	.	1d	Do-	2f\	-mi-	.	.
!	!	!	!	!	!	!	!	!LO:LB:g=original	!
2r	.	2r	.	.	.	2b-\	-nus	00r	.
!	!	!	!	!LO:TX:t=P:problem:kreska pseudotaktowa	!	!	!	!	!
*	*	*	*ij	*	*	*	*	*	*
[2A\	Do-	[2A\	Do-	2c/	-mi-	[2cc\	.	.	.
=28	=28	=28	=28	=28	=28	=28	=28	=28	=28
2A\]	.	2A\]	.	2f\	-n(us)	2cc\]	.	.	.
!LO:TX:t=P:problem:kreska pseudotaktowa	!	!LO:TX:t=P:problem:kreska pseudotaktowa	!	!	!	!	!	!	!
2G/	-mi-	2G/	-mi-	1g	De-	2b-\	De-	.	.
!	!	!	!	!	!	!LO:TX:t=P:problem:kreska pseudotaktowa	!	!	!
2c,\	-n(us)	2c\	-n(us)	.	.	1a	-(us)	.	.
!	!	!	!	!LO:TX:t=P:problem:kreska pseudotaktowa	!	!	!	!	!
[2d\	DE-	[2d\	De-	2f\	-(us)	.	.	.	.
=29	=29	=29	=29	=29	=29	=29	=29	=29	=29
2d\]	.	2d\]	.	2d\	Sab-	2f\	Sab-	.	.
2c\	-(us)	2c\	-(us)	2.e\	.	2.g\	.	.	.
2B-\	Sab-	2B-\	Sab-	.	.	.	.	0r	.
.	.	.	.	4d\	.	4f\	.	.	.
!	!	!	!	!	!	!LO:TX:t=P:problem:kreska pseudotaktowa	!	!	!
2B-\	-ba-	2B-\	-ba-	[2d\	.	2d/	.	.	.
=30	=30	=30	=30	=30	=30	=30	=30	=30	=30
!LO:TX:t=P:problem:kreska pseudotaktowa	!	!LO:TX:t=P:problem:kreska pseudotaktowa	!	!	!	!	!	!LO:TX:t=P:problem:kreska pseudotaktowa	!
1A	-oth	1A,	-oth	2d\]	.	1e	-ba-	.	.
*	*	*	*Xij	*	*	*	*	*	*
!	!	!	!	!LO:TX:t=P:problem:kreska pseudotaktowa	!	!	!	!	!
.	.	.	.	2c/	-ba-	.	.	.	.
!	!	!	!	!LO:TX:t=P:problem:kreska pseudotaktowa	!	!	!	!	!
2B-\	Sab-	2B-\	Sab-	1d	-oth.	2d,/	-oth	2r	.
2G/	.	2G/	.	.	.	[2b-\	Sab-	[2g/	Do-
=31	=31	=31	=31	=31	=31	=31	=31	=31	=31
2.d\	.	2.d\	.	2r	.	2b-\]	.	2g/]	.
!	!	!	!	!	!	!LO:TX:t=P:problem:kreska pseudotaktowa	!	!LO:TX:t=P:problem:kreska pseudotaktowa	!
.	.	.	.	1d	Sab-	2a\	.	2f/	-mi-
4c\	.	4c\	.	.	.	.	.	.	.
2B-\	.	2B-\	.	.	.	2g\	.	2b-\	-n(us)
!LO:TX:t=P:problem:kreska pseudotaktowa	!	!LO:TX:t=P:problem:kreska pseudotaktowa	!	!LO:TX:t=P:problem:kreska pseudotaktowa	!	!	!	!	!
2A/	.	2A/	.	2c/	.	2f\	.	[2cc\	De-
!LO:LB:g=original	!	!	!	!	!	!	!	!	!
=32	=32	=32	=32	=32	=32	=32	=32	=32	=32
1.G	Sab-	1.G	.	2e-X\	.	2.g\	.	2cc\]	.
!	!	!	!	!	!	!	!	!LO:TX:t=P:problem:kreska pseudotaktowa	!
.	.	.	.	2d\	.	.	.	2b-\	-(us)
.	.	.	.	.	.	8f\L	.	.	.
!	!	!	!	!	!	!LO:TX:t=P:problem:kreska pseudotaktowa	!	!	!
.	.	.	.	.	.	8e\J	.	.	.
.	.	.	.	2B-/	.	4d/	.	2g/	Sab-
.	.	.	.	.	.	4e/	.	.	.
!LO:TX:t=P:problem:kreska pseudotaktowa	!	!LO:TX:t=P:problem:kreska pseudotaktowa	!	!LO:TX:t=P:problem:kreska pseudotaktowa:między nutą a kropką	!	!	!	!	!
2F/	.	2F/	.	[2c/	.	2f\	.	[2a/	.
=33	=33	=33	=33	=33	=33	=33	=33	=33	=33
2C/	.	2C/	.	4c/]	.	2e-X/	.	4a/]	.
.	.	.	.	4B-/	.	.	.	4g/	.
!	!	!	!	!LO:TX:t=P:problem:kreska pseudotaktowa	!	!LO:TX:t=P:problem:kreska pseudotaktowa	!	!	!
2E-X/	.	2E-X/	.	2G/	.	2c/	.	1g	.
!LO:N:vis=1.	!	!LO:N:vis=0	!	!	!	!	!	!	!
2D	.	1D	-ba-	2A/	.	1d	-ba-	.	.
!	!	!	!	!	!	!	!	!LO:TX:t=P:problem:# above	!
2D	-ba-	.	.	2A/	-ba-	.	.	2f#X/	-ba-
=34	=34	=34	=34	=34	=34	=34	=34	=34	=34
0G;	-oth.	0G;	-oth.	0Bn;	-oth.	0d;	-oth.	0g;	-oth.
!	!	!LO:PB:g=original	!	!	!	!	!	!	!
=35||	=35||	=35||	=35||	=35||	=35||	=35||	=35||	=35||	=35||
*M2/1	*	*M2/1	*	*M2/1	*	*M2/1	*	*M2/1	*
!LO:TX:a:t=Pleni sunt\nTacet.	!	!LO:TX:a:t=Pleni sunt\nTacet.	!	!	!	!	!	!	!
*	*	*	*	*met(C|)	*	*met(C|)	*	*	*
!	!	!	!	!	!	!LO:TX:a:t=a3	!	!	!
*	*	*	*	*	*	*	*	*met(C|)	*
0ryy	.	0ryy	.	00r	.	1d	Ple-	0r	.
.	.	.	.	.	.	2d/	-ni	.	.
!	!	!	!	!	!	!LO:TX:t=P:problem:kreska pseudotaktowa	!	!	!
.	.	.	.	.	.	2d/	sunt	.	.
=36	=36	=36	=36	=36	=36	=36	=36	=36	=36
!	!	!	!	!	!	!	!	!LO:TX:t=P:problem:kreska pseudotaktowa	!
0ryy	.	0ryy	.	.	.	1g	cae-	1r	.
.	.	.	.	.	.	2f#X\	-li	1dd	Ple-
.	.	.	.	.	.	[2g\	et	.	.
=37	=37	=37	=37	=37	=37	=37	=37	=37	=37
0ryy	.	0ryy	.	00r	.	4g\]	.	2dd\	-ni
.	.	.	.	.	.	4d/	.	.	.
!	!	!	!	!	!	!LO:TX:t=P:problem:kreska pseudotaktowa	!	!LO:TX:t=P:problem:kreska pseudotaktowa	!
.	.	.	.	.	.	2f\	ter-	2dd\	sunt
!	!	!	!	!	!	!LO:TX:t=P:problem:n above	!	!	!
.	.	.	.	.	.	1en	.	1gg	.
=38	=38	=38	=38	=38	=38	=38	=38	=38	=38
0ryy	.	0ryy	.	.	.	2d,/	-ra	2ff#X\	cae-
!	!	!	!	!	!	!LO:TX:t=P:problem:kreska pseudotaktowa	!	!	!
.	.	.	.	.	.	2g\	et	2.gg\	-li
*	*	*	*	*	*	*custos:b-	*	*	*
!	!	!	!	!	!	!LO:LB:g=original	!	!	!
.	.	.	.	.	.	2b-\	ter-	.	.
.	.	.	.	.	.	.	.	4dd\	cae-
!	!	!	!	!	!	!	!	!LO:TX:t=P:problem:kreska pseudotaktowa	!
.	.	.	.	.	.	[2a\	.	2ff#\	.
=39	=39	=39	=39	=39	=39	=39	=39	=39	=39
!	!	!	!	!LO:TX:t=P:problem:kreska pseudotaktowa	!	!	!	!	!
0ryy	.	0ryy	.	0r	.	4a\]	.	1ee	.
.	.	.	.	.	.	4g\	.	.	.
.	.	.	.	.	.	2.cc\	.	.	.
.	.	.	.	.	.	.	.	2dd\	-li
.	.	.	.	.	.	4b-\	.	.	.
!	!	!	!	!	!	!LO:TX:t=P:problem:kreska pseudotaktowa	!	!	!
.	.	.	.	.	.	2b-\	.	[2gg\	et
=40	=40	=40	=40	=40	=40	=40	=40	=40	=40
0ryy	.	0ryy	.	1d	Ple-	1a	-ra	2gg\]	.
.	.	.	.	.	.	.	.	4ff\	.
!	!	!	!	!	!	!	!	!LO:TX:t=P:problem:kreska pseudotaktowa	!
.	.	.	.	.	.	.	.	4ee\	.
.	.	.	.	2d\	-ni	2r	.	2.ff\	.
!	!	!	!	!	!	!LO:TX:t=P:problem:kreska pseudotaktowa	!	!	!
.	.	.	.	2d\	sunt	2a\	Ple-	.	.
!	!	!	!	!	!	!	!	!LO:TX:t=P:problem:kreska pseudotaktowa	!
.	.	.	.	.	.	.	.	4ee\	.
=41	=41	=41	=41	=41	=41	=41	=41	=41	=41
!	!	!	!	!LO:TX:t=P:problem:kreska pseudotaktowa	!	!	!	!	!
0ryy	.	0ryy	.	1g	cae-	2b-\	-ni	4dd\	.
.	.	.	.	.	.	.	.	4cc\	.
.	.	.	.	.	.	2g\	sunt	1dd	.
*	*	*	*	*custos:f#	*	*	*	*	*
!	!	!	!	!LO:LB:g=original	!	!	!	!	!
.	.	.	.	2f#X\	-li	2a\	.	.	.
.	.	.	.	[2g\	et	[2b-\	cae-	[2ee-X\	ter-
=42	=42	=42	=42	=42	=42	=42	=42	=42	=42
0ryy	.	0ryy	.	4g\]	.	2b-\]	.	4ee-\]	.
.	.	.	.	4d\	.	.	.	4dd\	.
!	!	!	!	!LO:TX:t=P:problem:kreska pseudotaktowa	!	!LO:TX:t=P:problem:kreska pseudotaktowa:między nutą a kropką	!	!LO:TX:t=P:problem:kreska pseudotaktowa	!
!	!	!	!	!	!	!	!	!LO:LB:g=original	!
.	.	.	.	2f\	.	[2a\	-li	2dd/	.
!	!	!	!	!	!	!LO:N:xstem:cue	!	!	!
.	.	.	.	1e	ter-	4a\]	.	4cc\	.
.	.	.	.	.	.	4g\	.	4b-\	.
.	.	.	.	.	.	[2g\	et	4a/	.
!	!	!	!	!	!	!	!	!LO:TX:t=P:problem:kreska pseudotaktowa	!
.	.	.	.	.	.	.	.	4g/	.
=43	=43	=43	=43	=43	=43	=43	=43	=43	=43
*	*	*	*	*lig	*	*	*	*	*
0ryy	.	0ryy	.	1d	-ra	2g\]	.	1a	.
!	!	!	!	!	!	!LO:TX:t=P:problem:kreska pseudotaktowa	!	!	!
!	!	!	!	!	!	!LO:TX:t=P:problem:# above	!	!	!
.	.	.	.	.	.	2f#X\	.	.	.
!	!	!	!	!LO:TX:t=P:problem:kreska pseudotaktowa	!	!	!	!	!
.	.	.	.	1G	.	2g\	ter-	2.b-/	.
.	.	.	.	.	.	2d/	.	.	.
.	.	.	.	.	.	.	.	4g/	.
!	!	!	!	!	!	!	!	!LO:TX:t=P:problem:kreska pseudotaktowa	!
*	*	*	*	*Xlig	*	*	*	*	*
=44	=44	=44	=44	=44	=44	=44	=44	=44	=44
0ryy	.	0ryy	.	2r	.	2d,/	-ra	2a/	.
!	!	!	!	!	!	!LO:TX:t=P:problem:kreska pseudotaktowa	!	!	!
*	*	*	*	*	*ij	*	*	*	*
.	.	.	.	2G/	Ple-	2d/	et	1b-	.
.	.	.	.	2G/	-ni	1g	ter-	.	.
!	!	!	!	!LO:TX:t=P:problem:kreska pseudotaktowa	!	!	!	!	!
.	.	.	.	2G/	sunt	.	.	4a/	.
.	.	.	.	.	.	.	.	4g/	.
=45	=45	=45	=45	=45	=45	=45	=45	=45	=45
!	!	!	!	!	!	!LO:TX:t=P:problem:n above	!	!LO:TX:t=P:problem:kreska pseudotaktowa	!
0ryy	.	0ryy	.	1d	cae-	2.fn\	.	1a	-ra
.	.	.	.	.	.	4d/	.	.	.
.	.	.	.	2c#X\	-li	2e\	.	2r	.
!	!	!	!	!	!	!	!	!LO:TX:t=P:problem:kreska pseudotaktowa	!
.	.	.	.	[2d\	et	[2f\	.	2a/	Ple-
=46	=46	=46	=46	=46	=46	=46	=46	=46	=46
0ryy	.	0ryy	.	4d\]	.	2f\]	.	2a/	-ni
.	.	.	.	4A/	.	.	.	.	.
!	!	!	!	!LO:TX:t=P:problem:kreska pseudotaktowa	!	!LO:TX:t=P:problem:kreska pseudotaktowa	!	!	!
.	.	.	.	2c/	ter-	2e\	.	2a/	sunt
!	!	!	!	!	!	!	!	!LO:TX:t=P:problem:kreska pseudotaktowa	!
.	.	.	.	1B-	.	2f\	.	1dd	cae-
.	.	.	.	.	.	2g\	.	.	.
=47	=47	=47	=47	=47	=47	=47	=47	=47	=47
0ryy	.	0ryy	.	2A,/	ra	4a\	.	2cc#X\	-li
*	*	*	*	*	*Xij	*	*	*	*
.	.	.	.	.	.	4g\	.	.	.
.	.	.	.	2.B-/	et	4f\	.	2.dd\	et
!	!	!	!	!	!	!LO:TX:t=P:problem:kreska pseudotaktowa	!	!	!
.	.	.	.	.	.	4e\	.	.	.
.	.	.	.	.	.	2.f\	.	.	.
.	.	.	.	4F/	.	.	.	4a/	.
!	!	!	!	!LO:TX:t=P:problem:kreska pseudotaktowa	!	!	!	!LO:TX:t=P:problem:kreska pseudotaktowa	!
.	.	.	.	2A/	ter-	.	.	2ccn\	ter-
.	.	.	.	.	.	4c/	.	.	.
=48	=48	=48	=48	=48	=48	=48	=48	=48	=48
0ryy	.	0ryy	.	1G	.	2d/	.	1b-	-ra
.	.	.	.	.	.	2e\	.	.	.
!	!	!	!	!	!	!LO:TX:t=P:problem:kreska pseudotaktowa	!	!	!
.	.	.	.	0F	-ra	1f	-ra	0,a	.
=49	=49	=49	=49	=49	=49	=49	=49	=49	=49
!	!	!	!	!LO:TX:t=P:problem:kreska pseudotaktowa	!	!	!	!LO:TX:t=P:problem:kreska pseudotaktowa	!
0ryy	.	0ryy	.	.	.	2r	.	.	.
.	.	.	.	.	.	1f	glo-	.	.
.	.	.	.	00r	.	.	.	1cc	glo-
!	!	!	!	!	!	!LO:TX:t=P:problem:kreska pseudotaktowa	!	!	!
.	.	.	.	.	.	2e\	-ri-	.	.
*	*	*	*	*	*	*custos:d	*	*	*
!	!	!	!	!	!	!LO:LB:g=original	!	!	!
=50	=50	=50	=50	=50	=50	=50	=50	=50	=50
0ryy	.	0ryy	.	.	.	2d/	-a	2b-/	-ri-
!	!	!	!	!	!	!	!	!LO:TX:t=P:problem:kreska pseudotaktowa	!
.	.	.	.	.	.	2.f\	.	2a/	-a
.	.	.	.	.	.	.	.	2.cc\	glo-
.	.	.	.	.	.	4e/	.	.	.
.	.	.	.	.	.	4c/	.	.	.
!	!	!	!	!	!	!LO:TX:t=P:problem:kreska pseudotaktowa	!	!	!
.	.	.	.	.	.	4d/	.	4b-/	.
=51	=51	=51	=51	=51	=51	=51	=51	=51	=51
!	!	!	!	!LO:TX:t=P:problem:kreska pseudotaktowa	!	!	!	!	!
0ryy	.	0ryy	.	.	.	4e\	.	4g/	.
.	.	.	.	.	.	4f\	.	4a/	.
.	.	.	.	.	.	4g\	.	4b-/	.
!	!	!	!	!	!	!	!	!LO:TX:t=P:problem:kreska pseudotaktowa	!
.	.	.	.	.	.	4a\	.	4cc/	.
.	.	.	.	1r	.	2b-\	tu-	4dd\	.
.	.	.	.	.	.	.	.	4ee\	.
.	.	.	.	.	.	2a\	.	[2ff\	.
=52	=52	=52	=52	=52	=52	=52	=52	=52	=52
!	!	!	!	!	!	!LO:TX:t=P:problem:kreska pseudotaktowa	!	!	!
0ryy	.	0ryy	.	1c	glo-	1g	-a	2ff\]	.
!	!	!	!	!	!	!	!	!LO:TX:t=P:problem:kreska pseudotaktowa	!
.	.	.	.	.	.	.	.	2ee\	.
.	.	.	.	2B-/	-ri-	2r	.	2dd\	.
!	!	!	!	!LO:TX:t=P:problem:kreska pseudotaktowa	!	!	! 	!	!
.	.	.	.	2A/	-a	[2f\	glo-	[2cc\	.
=53	=53	=53	=53	=53	=53	=53	=53	=53	=53
0ryy	.	0ryy	.	2.c/	glo-	2f\]	.	4cc\]	.
.	.	.	.	.	.	.	.	4b-/	.
!	!	!	!	!	!	!LO:TX:t=P:problem:kreska pseudotaktowa	!	!	!
.	.	.	.	.	.	2e\	-ri-	4g/	.
!	!	!	!	!	!	!	!	!LO:TX:t=P:problem:kreska pseudotaktowa	!
.	.	.	.	4B-/	.	.	.	4a/	.
.	.	.	.	4G/	.	2d/	-a	4b-\	.
.	.	.	.	4A/	.	.	.	4cc\	.
!	!	!	!	!	!	!	!	!LO:TX:t=P:problem:kreska pseudotaktowa	!
.	.	.	.	4B-/	.	[2b-\	.	[2dd\	.
!	!	!	!	!LO:TX:t=P:problem:kreska pseudotaktowa	!	!	!	!	!
.	.	.	.	4c/	.	.	.	.	.
!	!	!	!	!	!	!	!	!LO:LB:g=original	!
=54	=54	=54	=54	=54	=54	=54	=54	=54	=54
0ryy	.	0ryy	.	4d\	.	2b-\]	.	2dd\]	.
.	.	.	.	4e\	.	.	.	.	.
.	.	.	.	2.f\	.	4a\	.	4cc\	.
!	!	!	!	!	!	!LO:TX:t=P:problem:kreska pseudotaktowa	!	!LO:TX:t=P:problem:kreska pseudotaktowa	!
.	.	.	.	.	.	4g\	.	4b-\	.
.	.	.	.	.	.	2a\	.	2cc\	-ri-
.	.	.	.	4e|\	-ri-	.	.	.	.
.	.	.	.	(4d\	-a	[2b-\	.	[2dd\	-a
!	!	!	!	!LO:TX:t=P:problem:kreska pseudotaktowa	!	!	!	!	!
.	.	.	.	4c\)	.	.	.	.	.
!	!	!	!	!LO:LB:g=original	!	!	!	!	!
=55	=55	=55	=55	=55	=55	=55	=55	=55	=55
0ryy	.	0ryy	.	2B-/	tu-	4b-\]	.	2dd\]	.
.	.	.	.	.	.	4a\	.	.	.
.	.	.	.	2c\	.	1g	.	4cc\	.
!	!	!	!	!	!	!	!	!LO:TX:t=P:problem:kreska pseudotaktowa	!
.	.	.	.	.	.	.	.	4b-\	.
!	!	!	!	!LO:TX:t=P:problem:kreska pseudotaktowa	!	!	!	!	!
.	.	.	.	1d	-a	.	.	1a	tu-
!	!	!	!	!	!	!LO:TX:t=P:problem:# above	!	!	!
.	.	.	.	.	.	2f#X\	tu-	.	.
=56	=56	=56	=56	=56	=56	=56	=56	=56	=56
!	!	!	!	!	!	!LO:TX:t=P:problem:kreska pseudotaktowa	!	!LO:TX:t=P:problem:kreska pseudotaktowa	!
0ryy	.	0ryy	.	2r	.	1g	-a	0g	-a
.	.	.	.	1c	glo-	.	.	.	.
.	.	.	.	.	.	2r	.	.	.
!	!	!	!	!LO:TX:t=P:problem:kreska pseudotaktowa	!	!LO:TX:t=P:problem:kreska pseudotaktowa	!	!	!
.	.	.	.	2B-/	-ri-	2g\	glo-	.	.
=57	=57	=57	=57	=57	=57	=57	=57	=57	=57
0ryy	.	0ryy	.	2A,/	-a	2f\	.	0r	.
!	!	!	!	!	!	!LO:TX:t=P:problem:kreska pseudotaktowa	!	!	!
!	!	!	!	!	!	!LO:TX:t=P:problem:n above	!	!	!
.	.	.	.	2.c/	glo-	2en\	.	.	.
.	.	.	.	.	.	2.g\	.	.	.
.	.	.	.	4B-/	.	.	.	.	.
.	.	.	.	4G/	.	.	.	.	.
!	!	!	!	!LO:TX:t=P:problem:kreska pseudotaktowa	!	!	!	!	!
.	.	.	.	4A/	.	4f\	.	.	.
=58	=58	=58	=58	=58	=58	=58	=58	=58	=58
!	!	!	!	!	!	!	!	!LO:TX:t=P:problem:kreska pseudotaktowa	!
0ryy	.	0ryy	.	4B-/	.	4d/	.	1r	.
.	.	.	.	4c/	.	4e/	.	.	.
.	.	.	.	4d/	.	4f/	ri-	.	.
!	!	!	!	!	!	!LO:TX:t=P:problem:kreska pseudotaktowa	!	!	!
.	.	.	.	4e/	.	4g/	.	.	.
.	.	.	.	2f\	.	2a,\	-a	1cc	glo-
!	!	!	!	!LO:TX:t=P:problem:kreska pseudotaktowa	!	!	!	!	!
.	.	.	.	2c/	.	[2g\	glo-	.	.
=59	=59	=59	=59	=59	=59	=59	=59	=59	=59
0ryy	.	0ryy	.	2.d\	.	4g\]	.	2b-/	-ri-
.	.	.	.	.	.	4f\	.	.	.
!	!	!	!	!	!	!	!	!LO:TX:t=P:problem:kreska pseudotaktowa	!
.	.	.	.	.	.	1f	.	2a/	-a
.	.	.	.	8c/L	.	.	.	.	.
.	.	.	.	8B-/J	.	.	.	.	.
.	.	.	.	2A/	.	.	.	2.cc\	glo-
!	!	!	!	!LO:TX:t=P:problem:kreska pseudotaktowa:między nutą a kropką	!	!	!	!	!
.	.	.	.	[2c/	.	4e/	.	.	.
!	!	!	!	!	!	!LO:TX:t=P:problem:kreska pseudotaktowa	!	!	!
.	.	.	.	.	.	4d/	.	4b-/	.
=60	=60	=60	=60	=60	=60	=60	=60	=60	=60
!	!	!	!	!LO:N:xstem:cue	!	!	!	!	!
0ryy	.	0ryy	.	4c/]	.	2e\	.	4g/	.
.	.	.	.	4c/	-ri-	.	.	4a/	.
!	!	!	!	!LO:TX:t=P:problem:kreska pseudotaktowa	!	!LO:TX:t=P:problem:kreska pseudotaktowa	!	!	!
.	.	.	.	2G/	-a	2g\	.	4b-/	.
!	!	!	!	!	!	!	!	!LO:TX:t=P:problem:kreska pseudotaktowa	!
.	.	.	.	.	.	.	.	4cc/	.
.	.	.	.	2.B-/	glo-	2f\	.	4dd\	.
.	.	.	.	.	.	.	.	4ee\	.
.	.	.	.	.	.	4d/	.	[2ff\	.
!	!	!	!	!	!	!LO:TX:t=P:problem:kreska pseudotaktowa	!	!	!
.	.	.	.	4c\	.	4e/	.	.	.
!	!	!	!	!	!	!LO:LB:g=original	!	!	!
=61	=61	=61	=61	=61	=61	=61	=61	=61	=61
0ryy	.	0ryy	.	4d\	.	4f\	.	4ff\]	.
.	.	.	.	4e\	.	4g\	.	4ee\	.
!	!	!	!	!LO:TX:t=P:problem:kreska pseudotaktowa:między nutą a kropką	!	!	!	!LO:TX:t=P:problem:kreska pseudotaktowa	!
.	.	.	.	[2f\	.	2.a\	.	2dd\	.
!	!	!	!	!LO:N:xstem:cue	!	!	!	!	!
.	.	.	.	4f\]	.	.	.	2cc\	ri-
!	!	!	!	!LO:TX:a:t=|	!	!	!	!	!
.	.	.	.	4e|\	-ri-	4g\	.	.	.
.	.	.	.	(4d\	-a	4f\	-ri-	[2dd\	-a
!	!	!	!	!LO:TX:t=P:problem:kreska pseudotaktowa	!	!LO:TX:t=P:problem:kreska pseudotaktowa	!	!	!
.	.	.	.	4c\)	.	4e\	.	.	.
=62	=62	=62	=62	=62	=62	=62	=62	=62	=62
0ryy	.	0ryy	.	2B-/	tu-	1f	-a	2dd\]	.
!	!	!	!	!	!	!	!	!LO:TX:t=P:problem:kreska pseudotaktowa	!
.	.	.	.	2A/	.	.	.	2cc\	.
.	.	.	.	1G	.	1g	tu-	1b-	tu-
=63	=63	=63	=63	=63	=63	=63	=63	=63	=63
0ryy	.	0ryy	.	0d;	-a.	0f#X;	-â	0a	-â.
!	!	!	!	!LO:LB:g=original	!	!	!	!	!
=64||	=64||	=64||	=64||	=64||	=64||	=64||	=64||	=64||	=64||
*M3/1	*	*M3/1	*	*M3/1	*	*M3/1	*	*M3/1	*
*	*	*	*	*met 3/2	*	*	*	*	*
!	!	!	!	!LO:TX:t=P:problem:kreska pseudotaktowa	!	!	!	!	!
*	*	*	*	*	*	*met 3/2	* 	*	*
!	!	!	!	!	!	!LO:TX:t=P:problem:kreska pseudotaktowa	!	!	!
*	*	*	*	*	*	*	*	*met 3/2	*
!	!	!	!	!LO:N:vis=2	!	!	!	!	!
00.r	.	00.r	.	1.r	.	1%3r	.	1g	O-
!	!	!	!	!	!	!	!	!LO:TX:t=P:problem:kreska pseudotaktowa	!
.	.	.	.	.	.	.	.	2b-/	-san-
.	.	.	.	1G	O-	.	.	1g	-na
!	!	!	!	!LO:TX:t=P:problem:kreska pseudotaktowa	!	!	!	!	!
.	.	.	.	2B-/	-san-	.	.	2f/	.
=65	=65	=65	=65	=65	=65	=65	=65	=65	=65
.	.	.	.	1G	-na	1d	O-	1b-	in
!	!	!	!	!LO:TX:t=P:problem:kreska pseudotaktowa	!	!LO:TX:t=P:problem:kreska pseudotaktowa	!	!LO:TX:t=P:problem:kreska pseudotaktowa	!
.	.	.	.	2F/	in	2f\	-san-	2cc\	ex-
.	.	.	.	1B-	ex-	1d	-na	2dd\	-cel-
.	.	.	.	.	.	.	.	2ff\	.
!	!	!	!	!LO:TX:t=P:problem:kreska pseudotaktowa	!	!LO:TX:t=P:problem:kreska pseudotaktowa	!	!LO:TX:t=P:problem:kreska pseudotaktowa	!
.	.	.	.	2c\	.	2c/	.	2ee\	.
*	*	*	*	*	*	*	*	*custos:dd	*
!	!	!	!	!	!	!	!	!LO:LB:g=original	!
=66	=66	=66	=66	=66	=66	=66	=66	=66	=66
00.r	.	00.r	.	2d\	-cel-	1f	in	2.dd\	.
.	.	.	.	2f\	.	.	.	.	.
.	.	.	.	.	.	.	.	4cc\	.
!	!	!	!	!LO:TX:t=P:problem:kreska pseudotaktowa	!	!LO:TX:t=P:problem:kreska pseudotaktowa	!	!LO:TX:t=P:problem:kreska pseudotaktowa	!
.	.	.	.	2e\	.	2g\	ex-	2cc\	.
.	.	.	.	1d	.	1a	-cel-	2dd\	.
.	.	.	.	.	.	.	.	2ff\	.
!	!	!	!	!LO:TX:t=P:problem:kreska pseudotaktowa	!	!LO:TX:t=P:problem:kreska pseudotaktowa	!	!LO:TX:t=P:problem:kreska pseudotaktowa	!
.	.	.	.	2A/	.	2cc\	.	2ee\	.
=67	=67	=67	=67	=67	=67	=67	=67	=67	=67
!LO:TX:t=P:problem:kreska pseudotaktowa	!	!LO:TX:t=P:problem:kreska pseudotaktowa	!	!	!	!	!	!	!
.	.	.	.	2B-/	.	2b-\	.	2dd\	.
.	.	.	.	2F/	.	2.a\	.	2.cc\	.
.	.	.	.	1G	sis	.	.	.	.
!	!	!	!	!	!	!LO:TX:t=P:problem:kreska pseudotaktowa	!	!LO:TX:t=P:problem:kreska pseudotaktowa	!
.	.	.	.	.	.	4g\	.	4b-/	.
.	.	.	.	.	.	1g	.	2b-/	-sis
!	!	!	!	!LO:TX:t=P:problem:kreska pseudotaktowa	!	!	!	!LO:TX:t=P:problem:kreska pseudotaktowa	!
.	.	.	.	1d	.	.	.	1a,	.
!	!	!	!	!	!	!LO:TX:t=P:problem:kreska pseudotaktowa	!	!	!
.	.	.	.	.	.	2f\	.	.	.
=68	=68	=68	=68	=68	=68	=68	=68	=68	=68
!	!	!	!	!LO:TX:t=P:problem:kreska pseudotaktowa	!	!	!	!	!
*	*	*	*	*	*	*	* 	*	*ij
!	!	!	!	!LO:N:vis=2	!	!	!	!	!
1G	O-	1G	O-	1.r	.	2g\	.	2b-/	O-
.	.	.	.	.	.	2e-X\	.	2g/	-san-
!LO:TX:t=P:problem:kreska pseudotaktowa	!	!LO:TX:t=P:problem:kreska pseudotaktowa	!	!	!	!LO:TX:t=P:problem:kreska pseudotaktowa	!	!LO:TX:t=P:problem:kreska pseudotaktowa	!
2B-\	-san-	2B-\	-san-	.	.	2d/	.	2f/	-na
1G	-na	1G,	-na	1d	O-	2.g\	.	1b-	in
.	.	.	.	.	.	4b-\	.	.	.
!LO:TX:t=P:problem:kreska pseudotaktowa	!	!LO:TX:t=P:problem:kreska pseudotaktowa	!	!LO:TX:t=P:problem:kreska pseudotaktowa	!	!LO:TX:t=P:problem:kreska pseudotaktowa	!	!LO:TX:t=P:problem:kreska pseudotaktowa	!
2F/	in	2F/	in	2f\	-san-	2a\	.	2cc\	ex-
=69	=69	=69	=69	=69	=69	=69	=69	=69	=69
1B-	ex-	1B-	ex-	1d	-na	1f	-sis.	2dd\	-cel-
.	.	.	.	.	.	.	.	2ff\	.
!	!	!LO:TX:t=P:problem:kreska pseudotaktowa	!	!LO:TX:t=P:problem:kreska pseudotaktowa	!	!LO:TX:t=P:problem:kreska pseudotaktowa	!	!LO:TX:t=P:problem:kreska pseudotaktowa	!
2c\	-cel	2c\	-cel-	2c\	.	1r	.	2ee\	.
!	!	!	!	!	!	!LO:TX:t=P:problem:kreska pseudotaktowa	!	!	!
(4d\	.	4d\	.	1f	in	.	.	2.dd\	.
4c\	.	4c\	.	.	.	.	.	.	.
4B-\	.	4B-\	.	.	.	1r	.	.	.
4A\)	.	4A\	.	.	.	.	.	4cc\	.
!LO:TX:t=P:problem:kreska pseudotaktowa	!	!LO:TX:t=P:problem:kreska pseudotaktowa	!	!LO:TX:t=P:problem:kreska pseudotaktowa	!	!	!	!LO:TX:t=P:problem:kreska pseudotaktowa	!
2G/	.	2G,/	-sis	2g\	ex-	.	.	2b-/	.
=70	=70	=70	=70	=70	=70	=70	=70	=70	=70
1D,	.	1D	in	4a\	-cel-	1d	O-	1a	.
.	.	.	.	4g\	.	.	.	.	.
.	.	.	.	4f\	.	.	.	.	.
.	.	.	.	4e\	.	.	.	.	.
!LO:TX:t=P:problem:kreska pseudotaktowa	!	!LO:TX:t=P:problem:kreska pseudotaktowa	!	!	!	!LO:TX:t=P:problem:kreska pseudotaktowa	!	!LO:TX:t=P:problem:kreska pseudotaktowa	!
2D/	in	2D/	ex-	4d\	.	2f\	-san-	2a,/	-sis
*	*	*	*	*	*	*	*	*	*Xij
!	!	!	!	!LO:TX:t=P:problem:kreska pseudotaktowa	!	!	!	!	!
.	.	.	.	4c\	.	.	.	.	.
2.G/	ex-	2.G/	-cel-	2.B-/	.	1d	.	2g/	O-
.	.	.	.	.	.	.	.	2b-\	-san-
4F/	-cel-	4F/	.	4A/	.	.	.	.	.
!LO:TX:t=P:problem:kreska pseudotaktowa	!	!LO:TX:t=P:problem:kreska pseudotaktowa	!	!LO:TX:t=P:problem:kreska pseudotaktowa	!	!LO:TX:t=P:problem:kreska pseudotaktowa	!	!LO:TX:t=P:problem:kreska pseudotaktowa	!
2E/	.	2E/	.	2G/	.	2c/	-na	2cc\	.
!	!	!	!	!	!	!LO:LB:g=original	!	!	!
=71	=71	=71	=71	=71	=71	=71	=71	=71	=71
!LO:TX:t=P:problem:kreska pseudotaktowa	!	!	!	!	!	!	!	!	!
1.D	-ſis.	1D	-sis.	2A/	.	1f	in	1dd	-na
.	.	.	.	2d\	.	.	.	.	.
!	!	!LO:TX:t=P:problem:kreska pseudotaktowa	!	!LO:TX:t=P:problem:kreska pseudotaktowa	!	!LO:TX:t=P:problem:kreska pseudotaktowa	!	!LO:TX:t=P:problem:kreska pseudotaktowa	!
!	!	!LO:N:vis=2	!	!	!	!	!	!	!
.	.	1.r	.	2c\	.	2g\	ex-	2ee\	.
!	!	!	!	!LO:LB:g=original	!	!	!	!	!
0.r	.	.	.	2A/	.	2.a\	-cel-	2ff\	in
.	.	.	.	2c\	.	.	.	2.ee\	ex-
.	.	.	.	.	.	4g\	.	.	.
!	!	!	!	!LO:TX:t=P:problem:kreska pseudotaktowa	!	!LO:TX:t=P:problem:kreska pseudotaktowa	!	!	!
.	.	0r	.	2d\	.	2f\	.	.	.
!	!	!	!	!	!	!	!	!LO:TX:t=P:problem:kreska pseudotaktowa	!
.	.	.	.	.	.	.	.	4dd\	.
=72	=72	=72	=72	=72	=72	=72	=72	=72	=72
!LO:TX:t=P:problem:kreska pseudotaktowa	!	!LO:TX:t=P:problem:kreska pseudotaktowa	!	!	!	!	!	!	!
.	.	.	.	2G/	.	2g\	.	1dd	-cel-
!	!	!	!	!LO:TX:t=P:problem:kreska pseudotaktowa	!	!LO:TX:t=P:problem:kreska pseudotaktowa	!	!	!
.	.	.	.	1A,	-sis	1e	.	.	.
!	!	!	!	!	!	!	!	!LO:TX:t=P:problem:# above	!
!	!	!	!	!	!	!	!	!LO:TX:t=P:problem:kreska pseudotaktowa	!
.	.	.	.	.	.	.	.	2cc#X\	.
1D	O-	1D	O-	4d\	in	1d	.	1dd	-sis
.	.	.	.	4e\	.	.	.	.	.
.	.	.	.	4f\	.	.	.	.	.
.	.	.	.	4g\	.	.	.	.	.
!LO:TX:t=P:problem:kreska pseudotaktowa	!	!LO:TX:t=P:problem:kreska pseudotaktowa	!	!LO:TX:t=P:problem:kreska pseudotaktowa	!	!LO:TX:t=P:problem:kreska pseudotaktowa	!	!LO:TX:t=P:problem:kreska pseudotaktowa	!
2F/	-san-	2F/	-san-	2a\	ex-	2c/	.	2r	.
=73	=73	=73	=73	=73	=73	=73	=73	=73	=73
1D	-na	1D	-na	2f\	-cel-	2d/	.	1a	O-
.	.	.	.	2d\	.	2f\	.	.	.
!LO:TX:t=P:problem:kreska pseudotaktowa	!	!LO:TX:t=P:problem:kreska pseudotaktowa	!	!LO:TX:t=P:problem:kreska pseudotaktowa	!	!LO:TX:t=P:problem:kreska pseudotaktowa	!	!LO:TX:t=P:problem:kreska pseudotaktowa	!
2C/	.	2C/	in	2e\	.	2g\	.	2cc\	-san-
1F	in	1F	ex-	2.f\	.	2c,/	-sis	1a	.
.	.	.	.	.	.	2cc\	in	.	.
.	.	.	.	4e\	.	.	.	.	.
!LO:TX:t=P:problem:kreska pseudotaktowa	!	!LO:TX:t=P:problem:kreska pseudotaktowa	!	!LO:TX:t=P:problem:kreska pseudotaktowa	!	!LO:TX:t=P:problem:kreska pseudotaktowa	!	!LO:TX:t=P:problem:kreska pseudotaktowa	!
2G/	ex-	2G/	.	2d\	.	2b-X\	ex-	2g/	-na
*custos:A	*	*	*	*	*	*	*	*	*
!LO:LB:g=original	!	!LO:LB:g=original	!	!	!	!	!	!	!
=74	=74	=74	=74	=74	=74	=74	=74	=74	=74
1A	-cel-	1A	-cel-	2c\	.	2.a\	-cel-	1cc	in
.	.	.	.	2e\	.	.	.	.	.
.	.	.	.	.	.	4g\	.	.	.
!LO:TX:t=P:problem:kreska pseudotaktowa	!	!LO:TX:t=P:problem:kreska pseudotaktowa	!	!LO:TX:t=P:problem:kreska pseudotaktowa	!	!	!	!LO:TX:t=P:problem:kreska pseudotaktowa	!
2d\	.	2d\	.	2f\	.	4a\	.	2dd\	.
!	!	!	!	!	!	!LO:TX:t=P:problem:kreska pseudotaktowa	!	!	!
.	.	.	.	.	.	4b-\	.	.	.
2c\	.	2c,\	-sis	2g\	.	1cc	.	2ee\	ex-
2F/	.	2F/	in	2.a\	.	.	.	2.ff\	-cel-
!	!	!	!	!	!	!LO:TX:t=P:problem:kreska pseudotaktowa	!	!	!
4D/	.	4D/	ex-	.	.	2f\	-sis	.	.
!LO:TX:t=P:problem:kreska pseudotaktowa	!	!LO:TX:t=P:problem:kreska pseudotaktowa	!	!LO:TX:t=P:problem:kreska pseudotaktowa	!	!	!	!LO:TX:t=P:problem:kreska pseudotaktowa	!
4E/	.	4E/	.	4g\	.	.	.	4ee\	.
!	!	!	!	!	!	!	!	!LO:LB:g=original	!
=75	=75	=75	=75	=75	=75	=75	=75	=75	=75
4F/	.	4F/	-cel-	2f\	.	1a	in	1dd	.
4G/	.	4G/	.	.	.	.	.	.	.
!LO:TX:t=P:problem:kreska pseudotaktowa	!	!LO:TX:t=P:problem:kreska pseudotaktowa	!	!LO:TX:t=P:problem:kreska pseudotaktowa	!	!	!	!	!
1A	.	1A	.	1e	-sis	.	.	.	.
!	!	!	!	!	!	!LO:TX:t=P:problem:kreska pseudotaktowa	!	!LO:TX:t=P:problem:kreska pseudotaktowa	!
.	.	.	.	.	.	2a\	ex-	2cc\	-sis
4D/	.	4D/	.	1f	.	1a	-cel-	1dd	in
4E/	.	4E/	.	.	.	.	.	.	.
4F/	.	4F/	.	.	.	.	.	.	.
4G/	.	4G/	.	.	.	.	.	.	.
!LO:TX:t=P:problem:kreska pseudotaktowa	!	!LO:TX:t=P:problem:kreska pseudotaktowa	!	!LO:TX:t=P:problem:kreska pseudotaktowa	!	!	!	!LO:TX:t=P:problem:kreska pseudotaktowa	!
2A\	.	2A\	.	2e\	in	[2f\	.	2cc\	.
=76	=76	=76	=76	=76	=76	=76	=76	=76	=76
2.D/	.	2.D/	.	1d	ex-	2f\]	.	2b-/	ex-
!	!	!	!	!	!	!LO:TX:t=P:problem:kreska pseudotaktowa	!	!LO:TX:t=P:problem:kreska pseudotaktowa	!
.	.	.	.	.	.	1d	.	1a	-cel-
4E/	.	4E/	.	.	.	.	.	.	.
!LO:TX:t=P:problem:kreska pseudotaktowa	!	!LO:TX:t=P:problem:kreska pseudotaktowa	!	!LO:TX:t=P:problem:kreska pseudotaktowa	!	!	!	!	!
2F/	.	2F/	.	2c\	-cel-	.	.	.	.
2G/	.	2G/	.	2B-/	.	[1.d;	-sis.	1g	.
!	!	!LO:TX:t=P:problem:kreska pseudotaktowa	!	!	!	!	!	!	!
1D	.	1D	.	1A	.	.	.	.	.
.	.	.	.	.	.	.	.	2f#X/	.
=77	=77	=77	=77	=77	=77	=77	=77	=77	=77
!	!	!	!	!	!	!LO:TX:b:t=Vertat(ur)	!	!	!
0.G;	-sis.	0.G;	-sis.	0.Bn;	-sis.	0.d]	.	0.g;	-sis.
!	!	!	!	!LO:PB:g=original	!	!LO:PB:g=original	!	!	!
=78||	=78||	=78||	=78||	=78||	=78||	=78||	=78||	=78||	=78||
*M2/1	*	*M2/1	*	*M2/1	*	*M2/1	*	*M2/1	*
*met(C|)	*	*met(C|)	*	*met(C|)	*	*	*	*	*
!	!	!	!	!LO:TX:a:t=à4&colon;	!	!	!	!	!
*	*	*	*	*	*	*met(C|)	*	*	*
!	!	!	!	!	!	!	!	!LO:TX:t=P:problem:kreska pseudotaktowa	!
*	*	*	*	*	*	*	*	*met(C|)	*
00r	.	00r	.	0G	Be-	00r	.	0r	.
*	*	*	*	*	*	*	*	*clefC2	*
=79	=79	=79	=79	=79	=79	=79	=79	=79	=79
.	.	.	.	1B-	-ne-	.	.	1.d	Be-
.	.	.	.	1G	-dic-	.	.	.	.
!	!	!	!	!	!	!	!	!LO:TX:t=P:problem:kreska pseudotaktowa	!
.	.	.	.	.	.	.	.	2e/	-ne-
=80	=80	=80	=80	=80	=80	=80	=80	=80	=80
!	!	!	!	!LO:TX:t=P:problem:kreska pseudotaktowa	!	!	!	!	!
0r	.	0r	.	1F	-t(us)	00r	.	1f	-dic-
.	.	.	.	1B-	Qui	.	.	2d/	-t(us)
!	!	!	!	!	!	!	!	!LO:TX:t=P:problem:kreska pseudotaktowa	!
.	.	.	.	.	.	.	.	2f\	qui
=81	=81	=81	=81	=81	=81	=81	=81	=81	=81
!LO:TX:t=P:problem:kreska pseudotaktowa	!	!LO:TX:t=P:problem:kreska pseudotaktowa	!	!LO:TX:t=P:problem:kreska pseudotaktowa	!	!	!	!	!
1r	.	1r	.	1c	.	.	.	1e	Ve-
[1D	Be-	[1D	Be-	2.d\	ve-	.	.	4d/	.
.	.	.	.	.	.	.	.	4e/	.
.	.	.	.	.	.	.	.	4f/	.
!	!	!	!	!	!	!	!	!LO:TX:t=P:problem:kreska pseudotaktowa	!
.	.	.	.	4e\	.	.	.	4g/	.
=82	=82	=82	=82	=82	=82	=82	=82	=82	=82
2D/]	.	2D/]	.	2f\	.	00r	.	4a\	.
.	.	.	.	.	.	.	.	4b-\	.
!	!	!LO:TX:t=P:problem:kreska pseudotaktowa	!	!	!	!	!	!	!
2E/	-ne-	2E/	-ne-	4e\	.	.	.	2.cc\	.
!	!	!	!	!LO:TX:t=P:problem:kreska pseudotaktowa	!	!	!	!	!
.	.	.	.	4d\	.	.	.	.	.
!LO:TX:t=P:problem:kreska pseudotaktowa	!	!	!	!	!	!	!	!	!
1F	-dic-	1F	-dic-	2c\	.	.	.	.	.
.	.	.	.	.	.	.	.	4b-\	.
.	.	.	.	[2f\	.	.	.	4a\	.
!	!	!	!	!	!	!	!	!LO:TX:t=P:problem:kreska pseudotaktowa	!
.	.	.	.	.	.	.	.	4g\	.
=83	=83	=83	=83	=83	=83	=83	=83	=83	=83
!	!	!	!	!	!	!LO:TX:t=P:problem:kreska pseudotaktowa	!	!	!
2D,/	-tus	2D/	-t(us)	4f\]	.	.	.	2f\	-nit
.	.	.	.	4e\	.	.	.	.	.
!	!	!LO:TX:t=P:problem:kreska pseudotaktowa	!	!LO:TX:t=P:problem:kreska pseudotaktowa	!	!	!	!	!
2F/	qui	2F/	Qui	2d\	.	.	.	2.a\	qui
1E	ve-	1E	ve-	4c/	.	.	.	.	.
.	.	.	.	4B-/	.	.	.	4g\	.
.	.	.	.	4A/	.	.	.	[2g\	Ve-
.	.	.	.	4G/	.	.	.	.	.
=84	=84	=84	=84	=84	=84	=84	=84	=84	=84
!LO:TX:t=P:problem:kreska pseudotaktowa	!	!LO:TX:t=P:problem:kreska pseudotaktowa	!	!LO:TX:t=P:problem:kreska pseudotaktowa	!	!	!	!	!
1D	-nit	1D	-nit	1A	.	0d	Be-	2g\]	.
!	!	!	!	!	!	!	!	!LO:TX:t=P:problem:kreska pseudotaktowa	!
.	.	.	.	.	.	.	.	2f\	.
!	!	!LO:TX:t=P:problem:kreska pseudotaktowa	!	!LO:TX:t=P:problem:kreska pseudotaktowa	!	!	!	!	!
1r	.	1r	.	1G	-nit	.	.	1b-	.
=85	=85	=85	=85	=85	=85	=85	=85	=85	=85
!	!	!	!	!	!	!LO:TX:t=P:problem:kreska pseudotaktowa	!	!LO:TX:t=P:problem:kreska pseudotaktowa	!
0D	Be-	0D	Be-	2r	.	1f	-ne-	1a	-nit
!	!	!	!	!LO:TX:t=P:problem:kreska pseudotaktowa	!	!	!	!	!
.	.	.	.	2d\	qui	.	.	.	.
!	!	!	!	!	!	!	!	!LO:TX:a:t=1.	!
!	!	!	!	!	!	!	!	!LO:TX:t=P:problem:kreska pseudotaktowa	!
.	.	.	.	2f\	ve-	1d	-dic-	1r	.
.	.	.	.	4F/	.	.	.	.	.
!	!	!	!	!LO:TX:t=P:problem:kreska pseudotaktowa	!	!	!	!	!
.	.	.	.	4G/	.	.	.	.	.
=86	=86	=86	=86	=86	=86	=86	=86	=86	=86
!	!	!LO:TX:t=P:problem:kreska pseudotaktowa	!	!	!	!LO:TX:t=P:problem:kreska pseudotaktowa	!	!	!
1F	-ne-	1F	-ne-	4A/	.	1c	-tus	1.a	Be-
.	.	.	.	4B-/	.	.	.	.	.
.	.	.	.	2c\	.	.	.	.	.
!	!	!LO:LB:g=original	!	!	!	!	!	!	!
1D	-dic-	1D	-dic-	2d\	.	1f	Qui	.	.
.	.	.	.	[2f\	.	.	.	2b-\	-ne-
=87	=87	=87	=87	=87	=87	=87	=87	=87	=87
!LO:TX:t=P:problem:kreska pseudotaktowa	!	!LO:TX:t=P:problem:kreska pseudotaktowa	!	!	!	!	!	!	!
*	*	*	*	*	*	*lig	*	*	*
!	!	!	!	!	!	!	!	!LO:TX:t=P:problem:kreska pseudotaktowa	!
1C	-t(us)	1C	-t(us)	4f\]	.	1g	Ve-	1cc	-di-
.	.	.	.	8e\L	.	.	.	.	.
.	.	.	.	8d\J	.	.	.	.	.
!	!	!	!	!LO:TX:t=P:problem:kreska pseudotaktowa	!	!	!	!	!
.	.	.	.	2e\	.	.	.	.	.
*lig	*	*	*	*	*	*	*	*	*
!	!	!	!	!	!	!LO:TX:t=P:problem:kreska pseudotaktowa	!	!	!
1F	Qui	1F	Qui	2.f\	.	1a	.	2a\	-ct(us)
.	.	.	.	.	.	.	.	2cc\	qui
.	.	.	.	4e\	.	.	.	.	.
*	*	*	*	*	*	*Xlig	*	*	*
=88	=88	=88	=88	=88	=88	=88	=88	=88	=88
!	!	!	!	!	!	!	!	!LO:TX:t=P:problem:kreska pseudotaktowa	!
1G	.	1G	.	4d\	.	2.g\	.	1b-	Ve-
.	.	.	.	4c\	.	.	.	.	.
.	.	.	.	1d	.	.	.	.	.
.	.	.	.	.	.	4f\	.	.	.
!	!	!LO:TX:t=P:problem:kreska pseudotaktowa	!	!	!	!	!	!LO:LB:g=original	!
1A	.	1A	.	.	.	4e/	.	2.a\	.
.	.	.	.	.	.	4d/	.	.	.
.	.	.	.	2c\	.	2e/	.	.	.
.	.	.	.	.	.	.	.	4g\	.
!	!	!	!	!LO:TX:t=P:problem:kreska pseudotaktowa	!	!LO:TX:t=P:problem:kreska pseudotaktowa	!	!	!
*Xlig	*	*	*	*	*	*	*	*	*
!	!	!	!	!LO:LB:g=original	!	!	!	!	!
=89	=89	=89	=89	=89	=89	=89	=89	=89	=89
!	!	!	!	!	!	!LO:TX:t=P:problem:kreska pseudotaktowa	!	!	!
2.B-\	ve-	2.B-\	ve-	2d\	-nit	0d	-nit	2f\	.
.	.	.	.	1G	qui	.	.	1b-	.
4A/	.	4A/	.	.	.	.	.	.	.
2G/	.	2G/	.	.	.	.	.	.	.
!	!	!LO:TX:t=P:problem:kreska pseudotaktowa	!	!LO:TX:t=P:problem:kreska pseudotaktowa	!	!	!	!LO:TX:t=P:problem:kreska pseudotaktowa	!
2F#X/	.	2F#X/	.	2A/	.	.	.	2a\	.
=90	=90	=90	=90	=90	=90	=90	=90	=90	=90
0G	.	0G	.	1B-	Ve-	2r	.	2.g\	.
.	.	.	.	.	.	1d	Be-	.	.
.	.	.	.	.	.	.	.	4a\	.
.	.	.	.	2G/	.	.	.	2b-\	.
!	!	!	!	!	!	!	!	!LO:TX:t=P:problem:kreska pseudotaktowa	!
.	.	.	.	2B-/	.	2e/	-ne-	2g\	.
=91	=91	=91	=91	=91	=91	=91	=91	=91	=91
!LO:TX:t=P:problem:kreska pseudotaktowa	!	!LO:TX:t=P:problem:kreska pseudotaktowa	!	!	!	!LO:TX:t=P:problem:kreska pseudotaktowa	!	!	!
0D,	-nit.	0D,	-nit	0A	.	1f	-dic-	2.a\	.
!	!	!	!	!	!	!	!	!LO:TX:t=P:problem:kreska pseudotaktowa	!
.	.	.	.	.	.	.	.	4g\	.
.	.	.	.	.	.	2d/	-t(us)	4f\	.
.	.	.	.	.	.	.	.	4e\	.
.	.	.	.	.	.	2f/	Qui	[2d/	.
=92	=92	=92	=92	=92	=92	=92	=92	=92	=92
!LO:TX:t=P:problem:kreska pseudotaktowa	!	!LO:TX:t=P:problem:kreska pseudotaktowa	!	!LO:TX:t=P:problem:kreska pseudotaktowa	!	!LO:TX:t=P:problem:kreska pseudotaktowa	!	!	!
1r	.	1r	.	1A	-nit	1e	.	2d/]	.
.	.	.	.	.	.	.	.	2c/	.
!LO:LB:g=original	!	!	!	!	!	!	!	!LO:TX:t=P:problem:kreska pseudotaktowa	!
[1G	Be-	[1G	/Be-	2r	.	2d/	ve-	1d	-nit
.	.	.	.	2d\	Qui	[2b-\	.	.	.
=93	=93	=93	=93	=93	=93	=93	=93	=93	=93
2G/]	.	2G/]	.	2e\	.	2b-\]	.	2r	.
!	!	!LO:TX:t=P:problem:kreska pseudotaktowa	!	!	!	!	!	!	!
*	*	*	*	*	*	*	*	*	*ij
2A\	-ne-	2A\	-ne-	1f	ve-	4a\	.	2c/	Be-
!	!	!	!	!	!	!LO:TX:t=P:problem:kreska pseudotaktowa	!	!	!
.	.	.	.	.	.	4g\	.	.	.
1B-	-dic-	1B-	-dic-	.	.	2f\	.	2d/	-ne-
!	!	!	!	!LO:TX:t=P:problem:kreska pseudotaktowa	!	!	!	!LO:TX:t=P:problem:kreska pseudotaktowa	!
.	.	.	.	2d\	.	[2b-\	.	2f\	-dic-
=94	=94	=94	=94	=94	=94	=94	=94	=94	=94
2G/	-t(us)	2G,/	-t(us)	2e-X\	.	4b-\]	.	1g	-t(us)
.	.	.	.	.	.	4a\	.	.	.
!	!	!LO:TX:t=P:problem:kreska pseudotaktowa	!	!	!	!	!	!	!
2B-\	Qui	2B-\	Qui	2.d\	.	1g	.	.	.
*lig	*	*lig	*	*	*	*	*	*	*
1A	ve-	1A	ve-	.	.	.	.	1c	qui
.	.	.	.	4c\	.	.	.	.	.
.	.	.	.	[2c\	.	2f\	.	.	.
=95	=95	=95	=95	=95	=95	=95	=95	=95	=95
!	!	!	!	!	!	!LO:TX:t=P:problem:kreska pseudotaktowa	!	!	!
1G	.	1G	.	2c\]	.	0g	-nit	1d	ve-
.	.	.	.	2B-/	.	.	.	.	.
*Xlig	*	*Xlig	*	*	*	*	*	*	*
!	!	!	!	!	!	!	!	!LO:TX:t=P:problem:kreska pseudotaktowa	!
[1C	-nit	0C	-nit/	0c	-nit	.	.	1e	-nit
*	*	*	*	*	*	*	*	*	*Xij
=96	=96	=96	=96	=96	=96	=96	=96	=96	=96
!LO:TX:t=P:problem:kreska pseudotaktowa	!	!LO:TX:t=P:problem:kreska pseudotaktowa	!	!LO:TX:t=P:problem:kreska pseudotaktowa	!	!	!	!	!
1C]	.	.	.	.	.	2r	.	2r	.
.	.	.	.	.	.	2cc\	in	2c/	in
00r	.	00r	.	1r	.	2cc\	No-	2e\	No-
!	!	!	!	!	!	!LO:TX:t=P:problem:kreska pseudotaktowa	!	!LO:TX:t=P:problem:kreska pseudotaktowa	!
.	.	.	.	.	.	2bn\	-mi-	2g\	-mi-
*	*	*	*	*	*	*custos:cc	*	*	*
!	!	!	!	!	!	!LO:LB:g=original	!	!	!
=97	=97	=97	=97	=97	=97	=97	=97	=97	=97
.	.	.	.	2r	.	2.cc\	-ne	2.a\	-ne
.	.	.	.	2F/	in	.	.	.	.
.	.	.	.	.	.	4b-\	.	4g\	.
.	.	.	.	2A/	No-	2a\	.	2f\	Do-
!	!	!	!	!	!	!LO:TX:t=P:problem:kreska pseudotaktowa:między nutą a kropką	!	!	!
.	.	.	.	2c\	-mi-	[2g\	Do-	[2e/	.
=98	=98	=98	=98	=98	=98	=98	=98	=98	=98
!	!	!	!	!LO:TX:t=P:problem:kreska pseudotaktowa	!	!	!	!	!
.	.	.	.	1d	-ne	4g\]	.	4e/]	.
.	.	.	.	.	.	4f\	.	4d/	.
.	.	.	.	.	.	4f\	.	1d	.
!	!	!	!	!	!	!LO:TX:t=P:problem:n above	!	!	!
.	.	.	.	.	.	8en\L	.	.	.
!	!	!	!	!	!	!LO:TX:t=P:problem:kreska pseudotaktowa	!	!	!
.	.	.	.	.	.	8d\J	.	.	.
0r	.	0r	.	2A/	.	2e\	.	.	.
!	!	!	!	!	!	!	!	!LO:TX:t=P:problem:# above	!
!	!	!	!	!	!	!	!	!LO:TX:t=P:problem:kreska pseudotaktowa	!
.	.	.	.	2A/	Do-	2e\	-mi-	2c#X/	.
=99	=99	=99	=99	=99	=99	=99	=99	=99	=99
!LO:TX:t=P:problem:kreska pseudotaktowa	!	!LO:TX:t=P:problem:kreska pseudotaktowa	!	!	!	!LO:TX:t=P:problem:kreska pseudotaktowa	!	!	!
.	.	.	.	2.B-/	-mi-	1d	-ni	2d/	.
!	!	!	!	!	!	!	!	!LO:TX:t=P:problem:kreska pseudotaktowa	!
.	.	.	.	.	.	.	.	2f\	.
.	.	.	.	8A/L	.	.	.	.	.
.	.	.	.	8G/J	.	.	.	.	.
!	!	!	!	!LO:TX:t=P:problem:kreska pseudotaktowa	!	!	!	!	!
2r	.	2r	.	1F	-ni	2r	.	2.a\	-mi-
!	!	!LO:TX:t=P:problem:kreska pseudotaktowa	!	!	!	!LO:TX:t=P:problem:kreska pseudotaktowa	!	!	!
2F/	in	2F/	in	.	.	2f\	in	.	.
.	.	.	.	.	.	.	.	4b-\	-ni,
=100	=100	=100	=100	=100	=100	=100	=100	=100	=100
!	!	!	!	!	!	!	!	!LO:TX:b:t=Citò	!
!	!	!	!	!LO:TX:t=P:problem:kreska pseudotaktowa	!	!	!	!LO:TX:t=P:problem:kreska pseudotaktowa	!
2A\	No-	2A\	No-	1r	.	2f\	No-	1cc	.
!LO:TX:t=P:problem:kreska pseudotaktowa	!	!LO:TX:t=P:problem:kreska pseudotaktowa	!	!	!	!LO:TX:t=P:problem:kreska pseudotaktowa	!	!	!
2c\	-mi-	2c\	-mi-	.	.	2e\	-mi-	.	.
*	*	*	*	*	*	*	*	*custos:f	*
!	!	!	!	!	!	!	!	!LO:PB:g=original	!
2d\	-ne	2d\	-ne	2r	.	2f,\	-ne	2r	.
!	!	!	!	!	!	!	!	!LO:TX:t=P:problem:kreska pseudotaktowa	!
4D/	.	4D/	.	2F/	in	[2a\	/in	2f\	in
4E/	.	4E/	.	.	.	.	.	.	.
=101	=101	=101	=101	=101	=101	=101	=101	=101	=101
4F/	.	4F/	.	2A/	No-	2a\]	.	2f\	No-
4G/	.	4G/	.	.	.	.	.	.	.
!LO:TX:t=P:problem:kreska pseudotaktowa	!	!LO:TX:t=P:problem:kreska pseudotaktowa	!	!LO:TX:t=P:problem:kreska pseudotaktowa	!	!LO:TX:t=P:problem:kreska pseudotaktowa	!	!	!
2A\	Do-	2A\	.	2c\	-mi-	2a\	No-	2e\	-mi-
!	!	!LO:LB:g=original	!	!	!	!	!	!	!
2D/	.	2D,/	.	1d	-ne	4a\	-mi-	2f\	-ne
.	.	.	.	.	.	4g\	.	.	.
*lig	*	*	*	*	*	*	*	*	*
[2d\	.	[2d\	Do-	.	.	4f\	.	[2B-/	Do-
.	.	.	.	.	.	4e\	.	.	.
=102	=102	=102	=102	=102	=102	=102	=102	=102	=102
2d\]	.	2d\]	.	2B-/	D(o-	1f,	-ne/	2B-/]	.
!	!	!	!	!	!	!	!	!LO:TX:t=P:problem:kreska pseudotaktowa	!
1c	.	1c	.	2A/	mi)-	.	.	2c/	-mi-
.	.	.	.	1G	-ni	2.g\	Do-	1d	-ni
!	!	!	!	!LO:TX:t=P:problem:kreska pseudotaktowa	!	!	!	!LO:TX:t=P:problem:kreska pseudotaktowa	!
*Xlig	*	*	*	*	*	*	*	*	*
!	!	!LO:TX:t=P:problem:kreska pseudotaktowa	!	!	!	!	!	!	!
2B-\	-mi-	2B-\	-mi-	.	.	.	.	.	.
!	!	!	!	!	!	!LO:TX:t=P:problem:kreska pseudotaktowa	!	!	!
.	.	.	.	.	.	4f\	-mi-	.	.
=103	=103	=103	=103	=103	=103	=103	=103	=103	=103
!LO:TX:t=P:problem:kreska pseudotaktowa	!	!LO:TX:t=P:problem:kreska pseudotaktowa	!	!LO:TX:t=P:problem:kreska pseudotaktowa	!	!	!	!	!
1c	-ni	1c	-ni	0r	.	2e,\	-ni	2r	.
!	!	!	!	!	!	!LO:TX:t=P:problem:kreska pseudotaktowa	!	!	!
.	.	.	.	.	.	2cc\	in	2c/	in
!LO:TX:t=P:problem:kreska pseudotaktowa	!	!LO:TX:t=P:problem:kreska pseudotaktowa	!	!	!	!	!	!	!
1r	.	1r	.	.	.	2cc\	No-	2e\	No-
!	!	!	!	!	!	!LO:TX:t=P:problem:kreska pseudotaktowa	!	!LO:TX:t=P:problem:kreska pseudotaktowa	!
.	.	.	.	.	.	2bn\	-mi-	2g\	-mi-
!	!	!	!	!LO:LB:g=original	!	!	!	!	!
=104	=104	=104	=104	=104	=104	=104	=104	=104	=104
1F	in	1F	in	2r	.	1cc	-ne	1a	-ne
.	.	.	.	2f\	in	.	.	.	.
2A\	No-	2A\	No-	2f\	No-	2a\	Do-	2.cc\	Do-
!	!	!LO:TX:t=P:problem:kreska pseudotaktowa	!	!LO:TX:t=P:problem:kreska pseudotaktowa	!	!LO:TX:t=P:problem:kreska pseudotaktowa	!	!	!
2c\	-mi-	2c\	-mi-	2e\	-mi-	2g\	.	.	.
!	!	!	!	!	!	!	!	!LO:TX:t=P:problem:kreska pseudotaktowa	!
.	.	.	.	.	.	.	.	4b-\	.
=105	=105	=105	=105	=105	=105	=105	=105	=105	=105
2d,\	-ne	2d\	-ne	2f,\	-ne	2f\	.	2a\	.
!	!	!	!	!	!	!LO:TX:t=P:problem:kreska pseudotaktowa	!	!LO:TX:t=P:problem:kreska pseudotaktowa	!
*	*	*	*	*	*ij	*	*	*	*
4D/	Do-	4D/	.	2F/	in	[2a\	.	[2f\	.
!LO:TX:t=P:problem:kreska pseudotaktowa	!	!LO:TX:t=P:problem:kreska pseudotaktowa	!	!	!	!	!	!	!
4E/	.	4E/	.	.	.	.	.	.	.
4F/	.	4F/	.	2A/	No-	2a\]	.	2f\]	.
4G/	.	4G/	.	.	.	.	.	.	.
!	!	!LO:TX:t=P:problem:kreska pseudotaktowa	!	!LO:TX:t=P:problem:kreska pseudotaktowa	!	!	!	!LO:TX:t=P:problem:kreska pseudotaktowa	!
2A\	.	2A\	.	2c\	-mi-	2a\	-mi-	2e\	.
=106	=106	=106	=106	=106	=106	=106	=106	=106	=106
1.D	.	1.D	Do-	2.d\	-ne	4a\	-ni	2f\	.
*	*	*	*	*	*Xij	*	*	*	*
.	.	.	.	.	.	4g\	.	.	.
.	.	.	.	.	.	4f\	.	4d/	.
!	!	!	!	!	!	!	!	!LO:TX:t=P:problem:kreska pseudotaktowa	!
.	.	.	.	4c/	.	4e\	.	4e/	.
.	.	.	.	2B-/	.	2d/	Do-	4f\	.
.	.	.	.	.	.	.	.	4g\	.
!LO:TX:t=P:problem:kreska pseudotaktowa	!	!LO:TX:t=P:problem:kreska pseudotaktowa	!	!LO:TX:t=P:problem:kreska pseudotaktowa	!	!	!	!	!
2F/	.	2F/	.	2A/	.	4c/	.	[2a\	.
!	!	!	!	!	!	!LO:TX:t=P:problem:kreska pseudotaktowa	!	!	!
.	.	.	.	.	.	4d/	.	.	.
=107	=107	=107	=107	=107	=107	=107	=107	=107	=107
!	!	!	!	!	!	!LO:TX:t=P:problem:- above	!	!	!
2E-X/	.	2E-X/	.	2B-/	Do-	1e-X	.	4a\]	.
.	.	.	.	.	.	.	.	4g\	.
!	!	!LO:TX:t=P:problem:kreska pseudotaktowa	!	!	!	!	!	!	!
2C/	.	2C/	.	2c\	.	.	.	1g	.
2.D/	.	2.D/	.	2.A/	.	2.d/	.	.	.
!	!	!	!	!	!	!	!	!LO:TX:t=P:problem:kreska pseudotaktowa	!
.	.	.	.	.	.	.	.	2f#X\	-mi-
4D/	-mi-	4D/	-mi-	4A/	-mi-	4d/	-mi-	.	.
=108	=108	=108	=108	=108	=108	=108	=108	=108	=108
!LO:TX:b:t=Osanna\nda Capo.	!	!LO:TX:b:t=Osanna\nut Supra	!	!LO:TX:b:t=Osanna\nut Supra	!	!	!	!LO:TX:b:t=Osanna\nut Supra	!
0G;	-ni.	0G;	-ni.	0Bn;	-ni	0d;	-ni.	0g;	-ni.
==	==	==	==	==	==	==	==	==	==
*-	*-	*-	*-	*-	*-	*-	*-	*-	*-
!!!system-decoration: [(s1,s2,s3,s4,s5)]
!!!ENC: Filip Voros
!!!END: 2024-05-05
!!!ENC: Leszek Kubiak
!!!ENC: 2024-06-17
!!!RDF**kern: i = editorial accidental
!!!RDF**kern: | = vertical stroke
